SVG_Azure_Grouped/Management/Cost Management for AWS.svg

<?xml version="1.0" encoding="UTF-8" standalone="no"?>
<!-- Generated by Microsoft Visio, SVG Export Cost Management for AWS.svg Page-1 -->

<svg
   xmlns:dc="http://purl.org/dc/elements/1.1/"
   xmlns:cc="http://creativecommons.org/ns#"
   xmlns:rdf="http://www.w3.org/1999/02/22-rdf-syntax-ns#"
   xmlns:svg="http://www.w3.org/2000/svg"
   xmlns="http://www.w3.org/2000/svg"
   xmlns:sodipodi="http://sodipodi.sourceforge.net/DTD/sodipodi-0.dtd"
   xmlns:inkscape="http://www.inkscape.org/namespaces/inkscape"
   width="0.78736693in"
   height="0.78737801in"
   viewBox="0 0 56.690487 56.691505"
   xml:space="preserve"
   class="st6"
   version="1.1"
   id="svg39"
   sodipodi:docname="Cost Management for AWS.svg"
   style="font-size:12px;overflow:visible;color-interpolation-filters:sRGB;fill:none;fill-rule:evenodd;stroke-linecap:square;stroke-miterlimit:3"
   inkscape:version="0.92.5 (2060ec1f9f, 2020-04-08)"><metadata
   id="metadata45"><rdf:RDF><cc:Work
       rdf:about=""><dc:format>image/svg+xml</dc:format><dc:type
         rdf:resource="http://purl.org/dc/dcmitype/StillImage" /></cc:Work></rdf:RDF></metadata><defs
   id="defs43" /><sodipodi:namedview
   pagecolor="#ffffff"
   bordercolor="#666666"
   borderopacity="1"
   objecttolerance="10"
   gridtolerance="10"
   guidetolerance="10"
   inkscape:pageopacity="0"
   inkscape:pageshadow="2"
   inkscape:window-width="640"
   inkscape:window-height="480"
   id="namedview41"
   showgrid="false"
   inkscape:zoom="1.7193066"
   inkscape:cx="37.795072"
   inkscape:cy="23.279613"
   inkscape:window-x="0"
   inkscape:window-y="0"
   inkscape:window-maximized="0"
   inkscape:current-layer="svg39" />
	<style
   type="text/css"
   id="style2">
	<![CDATA[
		.st1 {fill:#59b4d9;stroke:none;stroke-linecap:butt;stroke-width:12.24}
		.st2 {fill:#ffffff;fill-opacity:0.2;stroke:none;stroke-linecap:butt;stroke-width:12.24}
		.st3 {fill:#3999c6;fill-opacity:0.4;stroke:none;stroke-linecap:butt;stroke-width:12.24}
		.st4 {fill:#3999c6;stroke:none;stroke-linecap:butt;stroke-width:12.24}
		.st5 {fill:#ffffff;stroke:none;stroke-linecap:butt;stroke-width:12.24}
		.st6 {fill:none;fill-rule:evenodd;font-size:12px;overflow:visible;stroke-linecap:square;stroke-miterlimit:3}
	]]>
	</style>

	<g
   id="g37"
   transform="translate(-12.24016,-12.242796)">
		<title
   id="title4">Page-1</title>
		<g
   id="group12429-1"
   transform="translate(12.24,-34.0157)">
			<title
   id="title6">Cost Management for AWS.12429</title>
			<g
   id="group12430-2">
				<title
   id="title8">Sheet.12430</title>
				<g
   id="shape12431-3"
   transform="translate(0,-25.8815)">
					<title
   id="title10">Sheet.12431</title>
					<path
   d="m 38.65,85.36 c 0.01,-0.19 0.03,-0.38 0.03,-0.58 0,-6.98 -5.57,-12.64 -12.43,-12.64 a 12.4238,12.6536 -180 0 0 -11.06,6.87 11.9833,12.205 -180 0 0 -3.2,-0.45 C 5.37,78.56 0,84.02 0,90.75 c 0,0.14 0.02,0.27 0.02,0.4 0,0.13 -0.02,0.25 -0.02,0.38 0,6.31 5.13,11.42 11.47,11.42 h 25.47 c 4.93,0 8.92,-3.98 8.92,-8.88 0,-4.32 -3.1,-7.92 -7.21,-8.71 z"
   class="st1"
   id="path12"
   inkscape:connector-curvature="0"
   style="fill:#59b4d9;stroke:none;stroke-width:12.23999977;stroke-linecap:butt" />
				</g>
				<g
   id="shape12432-5"
   transform="translate(0,-25.8815)">
					<title
   id="title15">Sheet.12432</title>
					<path
   d="m 38.65,85.36 c 0.01,-0.19 0.03,-0.38 0.03,-0.58 0,-6.98 -5.57,-12.64 -12.43,-12.64 a 12.4238,12.6536 -180 0 0 -11.06,6.87 11.9833,12.205 -180 0 0 -3.2,-0.45 C 5.37,78.56 0,84.02 0,90.75 c 0,0.14 0.02,0.27 0.02,0.4 0,0.13 -0.02,0.25 -0.02,0.38 0,6.31 5.13,11.42 11.47,11.42 h 25.47 c 4.93,0 8.92,-3.98 8.92,-8.88 0,-4.32 -3.1,-7.92 -7.21,-8.71 z"
   class="st2"
   id="path17"
   inkscape:connector-curvature="0"
   style="fill:#ffffff;fill-opacity:0.2;stroke:none;stroke-width:12.23999977;stroke-linecap:butt" />
				</g>
				<g
   id="shape12433-7"
   transform="translate(4.90078,-18.2625)">
					<title
   id="title20">Sheet.12433</title>
					<path
   d="M 25.51,97.28 11.82,83.35 c 0.01,-0.12 0.04,-0.23 0.04,-0.34 0,-3.34 -2.66,-6.04 -5.93,-6.04 -3.27,0 -5.93,2.7 -5.93,6.04 0,3.33 2.66,6.03 5.93,6.03 0.11,0 0.22,-0.02 0.33,-0.03 l 13.69,13.94 z"
   class="st3"
   id="path22"
   inkscape:connector-curvature="0"
   style="fill:#3999c6;fill-opacity:0.4;stroke:none;stroke-width:12.23999977;stroke-linecap:butt" />
				</g>
				<g
   id="shape12434-9"
   transform="translate(3.69071)">
					<title
   id="title25">Sheet.12434</title>
					<path
   d="m 8.33,82.61 c 0,-0.22 -0.03,-0.44 -0.03,-0.66 0,-8.07 6.44,-14.62 14.37,-14.62 5.57,0 10.39,3.23 12.78,7.95 a 13.8613,14.1178 0 0 1 3.69,-0.52 c 7.66,0 13.86,6.31 13.86,14.09 0,0.16 -0.02,0.3 -0.02,0.46 0,0.15 0.02,0.29 0.02,0.44 0,7.29 -5.93,13.2 -13.25,13.2 H 10.31 C 4.61,102.95 0,98.35 0,92.68 0,87.69 3.59,83.53 8.33,82.61 Z"
   class="st4"
   id="path27"
   inkscape:connector-curvature="0"
   style="fill:#3999c6;stroke:none;stroke-width:12.23999977;stroke-linecap:butt" />
				</g>
				<g
   id="shape12435-11"
   transform="translate(6.05034,-17.9139)">
					<title
   id="title30">Sheet.12435</title>
					<path
   d="m 20.51,92.64 c -0.74,0 -1.45,0.15 -2.1,0.41 l -9,-9.17 a 4.75557,4.84355 -180 0 0 0.15,-1.16 4.78,4.8684343 -180 1 0 -9.56,0 4.77977,4.8682 -180 0 0 4.78,4.87 4.74347,4.83122 -180 0 0 1.24,-0.19 l 8.96,9.14 a 5.87488,5.98357 -180 0 0 -0.4,2.14 5.92934,6.03903 -180 1 0 5.93,-6.04 z"
   class="st5"
   id="path32"
   inkscape:connector-curvature="0"
   style="fill:#ffffff;stroke:none;stroke-width:12.23999977;stroke-linecap:butt" />
				</g>
			</g>
		</g>
	</g>
</svg>

<?xml version="1.0" encoding="UTF-8" standalone="no"?>
<!DOCTYPE svg PUBLIC "-//W3C//DTD SVG 1.1//EN" "http://www.w3.org/Graphics/SVG/1.1/DTD/svg11.dtd">
<!-- Generated by Microsoft Visio, SVG Export Cost Management for AWS.svg Page-1 -->
<svg xmlns="http://www.w3.org/2000/svg" xmlns:xlink="http://www.w3.org/1999/xlink" xmlns:ev="http://www.w3.org/2001/xml-events"
		width="1.1274in" height="1.42984in" viewBox="0 0 81.1729 102.949" xml:space="preserve" color-interpolation-filters="sRGB"
		class="st6">
	<style type="text/css">
	<![CDATA[
		.st1 {fill:#59b4d9;stroke:none;stroke-linecap:butt;stroke-width:12.24}
		.st2 {fill:#ffffff;fill-opacity:0.2;stroke:none;stroke-linecap:butt;stroke-width:12.24}
		.st3 {fill:#3999c6;fill-opacity:0.4;stroke:none;stroke-linecap:butt;stroke-width:12.24}
		.st4 {fill:#3999c6;stroke:none;stroke-linecap:butt;stroke-width:12.24}
		.st5 {fill:#ffffff;stroke:none;stroke-linecap:butt;stroke-width:12.24}
		.st6 {fill:none;fill-rule:evenodd;font-size:12px;overflow:visible;stroke-linecap:square;stroke-miterlimit:3}
	]]>
	</style>

	<g>
		<title>Page-1</title>
		<g id="group12147-1" transform="translate(12.24,-34.0157)">
			<title>Cost Management for AWS.12147</title>
			<g id="group12148-2">
				<title>Sheet.12148</title>
				<g id="shape12149-3" transform="translate(0,-25.8815)">
					<title>Sheet.12149</title>
					<path d="M38.65 85.36 C38.66 85.17 38.68 84.98 38.68 84.78 C38.68 77.8 33.11 72.14 26.25 72.14 A12.4238 12.6536
								 -180 0 0 15.19 79.01 A11.9833 12.205 -180 0 0 11.99 78.56 C5.37 78.56 0 84.02 0 90.75 C0 90.89 0.02
								 91.02 0.02 91.15 C0.02 91.28 0 91.4 0 91.53 C0 97.84 5.13 102.95 11.47 102.95 L36.94 102.95 C41.87
								 102.95 45.86 98.97 45.86 94.07 C45.86 89.75 42.76 86.15 38.65 85.36 Z" class="st1"/>
				</g>
				<g id="shape12150-5" transform="translate(0,-25.8815)">
					<title>Sheet.12150</title>
					<path d="M38.65 85.36 C38.66 85.17 38.68 84.98 38.68 84.78 C38.68 77.8 33.11 72.14 26.25 72.14 A12.4238 12.6536
								 -180 0 0 15.19 79.01 A11.9833 12.205 -180 0 0 11.99 78.56 C5.37 78.56 0 84.02 0 90.75 C0 90.89 0.02
								 91.02 0.02 91.15 C0.02 91.28 0 91.4 0 91.53 C0 97.84 5.13 102.95 11.47 102.95 L36.94 102.95 C41.87
								 102.95 45.86 98.97 45.86 94.07 C45.86 89.75 42.76 86.15 38.65 85.36 Z" class="st2"/>
				</g>
				<g id="shape12151-7" transform="translate(4.90078,-18.2625)">
					<title>Sheet.12151</title>
					<path d="M25.51 97.28 L11.82 83.35 C11.83 83.23 11.86 83.12 11.86 83.01 C11.86 79.67 9.2 76.97 5.93 76.97 C2.66
								 76.97 0 79.67 0 83.01 C0 86.34 2.66 89.04 5.93 89.04 C6.04 89.04 6.15 89.02 6.26 89.01 L19.95 102.95
								 L25.51 97.28 Z" class="st3"/>
				</g>
				<g id="shape12152-9" transform="translate(3.69071,0)">
					<title>Sheet.12152</title>
					<path d="M8.33 82.61 C8.33 82.39 8.3 82.17 8.3 81.95 C8.3 73.88 14.74 67.33 22.67 67.33 C28.24 67.33 33.06 70.56
								 35.45 75.28 A13.8613 14.1178 0 0 1 39.14 74.76 C46.8 74.76 53 81.07 53 88.85 C53 89.01 52.98 89.15
								 52.98 89.31 C52.98 89.46 53 89.6 53 89.75 C53 97.04 47.07 102.95 39.75 102.95 L10.31 102.95 C4.61
								 102.95 0 98.35 0 92.68 C0 87.69 3.59 83.53 8.33 82.61 Z" class="st4"/>
				</g>
				<g id="shape12153-11" transform="translate(6.05034,-17.9139)">
					<title>Sheet.12153</title>
					<path d="M20.51 92.64 C19.77 92.64 19.06 92.79 18.41 93.05 L9.41 83.88 A4.75557 4.84355 -180 0 0 9.56 82.72 A4.77977
								 4.8682 -180 1 0 0 82.72 A4.77977 4.8682 -180 0 0 4.78 87.59 A4.74347 4.83122 -180 0 0 6.02 87.4
								 L14.98 96.54 A5.87488 5.98357 -180 0 0 14.58 98.68 A5.92934 6.03903 -180 1 0 20.51 92.64 Z"
							class="st5"/>
				</g>
			</g>
		</g>
	</g>
</svg>
